!! Stephen C. Foster, "Gwine to Run All Night (or 'De Camptown Race')"
!! from 'Stephen Foster Song Book' Dover Publications (New York) pp. 15-17
!! NOTE:  Leading and trailing bars of rest have been omitted.
**kern
*M2/4
*MM108
*D:
8a
=1
8a
8a
8f#
8a
=2
8b
8a
8f#
8r
=3
8f#
4.e
=4
8f#
4e
8a
=5
8a
8a
8f#
8a
=6
8b
8a
8f#
8r
=7
4e
8f#
8e
=8
4d
8r
8a
=9
8a
8a
8f#
16a
16a
=10
8b
8a
8f#
8r
=11
8f#
4.e
=12
8f#
4e
8a
=13
8a
8a
8f#
16a
16a
=14
16b
16b
16a
16a
8f#
8r
=15
4e
8f#
8e
=16
4.d
8r
=17
8.d
16d
8f#
8a
=18
4.dd
8r
=19
8.b
16b
8dd
8b
=20
4.a
{16f#
16g}
=21
8a
8a
16f#
16f#
16a
16a
=22
8b
8a
4f#
=23
8e
16f#
16g
16f#
8e
16e
=24
2d
==
*-
